public/assets/trusts-llama/boe.svg

<svg fill="none" height="21" viewBox="0 0 158 21" width="158" xmlns="http://www.w3.org/2000/svg"><g fill="#fff"><path d="m11.0848 11.4526c0 2.5785-2.08551 4.3666-4.69531 4.3666h-6.38949v-15.064073h5.94344c2.53937 0 4.58186 1.721603 4.58186 4.241413.0132.57796-.1082 1.15108-.3547 1.674-.24652.52292-.61137.98128-1.06567 1.33881.61437.33679 1.12417.83626 1.47337 1.44363.3492.60742.5245 1.29922.5065 1.99962zm-8.11112-7.91943v3.3141h2.96976c.21633.00228.43087-.03942.63058-.12259.19972-.08317.38045-.20606.53121-.36122.15077-.15515.26842-.33933.34582-.54136.0774-.20202.11293-.41766.10444-.63384.0126-.21698-.02012-.43422-.0961-.63786s-.19354-.38923-.34519-.54493c-.15166-.15571-.33408-.27811-.53565-.35943-.20157-.08131-.41786-.11975-.63511-.11287zm3.41973 9.51183c.23422.0051.467-.038.68387-.1266.21687-.0887.41321-.2209.57684-.3886.16364-.1676.29107-.3672.37439-.5861.08332-.219.12075-.4527.10997-.6868.00864-.2324-.03045-.4641-.11483-.6808-.08439-.2167-.2123-.4138-.37582-.57915-.16352-.16536-.3592-.29545-.57495-.38225s-.447-.12846-.67947-.12242h-3.41973v3.55272z"/><path d="m23.6092 5.70494v10.11446h-2.7741v-1.2286c-.6026.8608-1.5925 1.5299-3.2515 1.5299-2.4963 0-5.0865-1.7647-5.0865-5.5718 0-3.68187 2.4963-5.79084 6.499-5.79084 1.8586 0 3.7328.45387 4.6131.94688zm-2.7741 6.60866v-4.73446c-.6132-.1529-1.2423-.23301-1.8742-.23867-2.2576 0-3.7014 1.14252-3.7014 3.20843 0 2.0659 1.4203 3.0324 2.9697 3.0324.5034.0079 1.0015-.1027 1.4542-.3229s.8473-.5439 1.1517-.9448z"/><path d="m36.2007 9.21467v6.60473h-2.778v-6.26041c0-1.46336-.8804-2.21852-2.1285-2.21852-1.3578 0-2.3477.78254-2.3477 2.66853v5.8104h-2.7937v-10.76006h2.7742v1.20512c.6456-.96644 1.7646-1.5064 3.2045-1.5064 2.3007 0 4.0692 1.59248 4.0692 4.45661z"/><path d="m38.5679 15.8193v-15.279279l2.7741-.430402v9.684041l3.7014-4.73442h3.3141l-4.304 5.31746 4.4527 5.4426h-3.228l-3.9127-4.8831v4.8831z"/><path d="m52.9432 10.4391c-.0023-1.12693.3299-2.22924.9545-3.16725.6247-.93801 1.5137-1.66952 2.5545-2.10187 1.0407-.43235 2.1863-.54608 3.2918-.32678 1.1054.21929 2.1209.76174 2.9178 1.55863s1.3393 1.81237 1.5586 2.91781c.2193 1.10546.1056 2.25106-.3268 3.29186-.4323 1.0407-1.1638 1.9297-2.1018 2.5544-.9381.6247-2.0404.9569-3.1673.9545-.7483.0079-1.4906-.1337-2.1834-.4164-.6929-.2828-1.3223-.7009-1.8514-1.2301-.5291-.5291-.9473-1.1585-1.2301-1.8514-.2827-.6928-.4243-1.4351-.4164-2.1834zm8.608 0c.0144-.392-.0505-.78292-.1906-1.14936-.1401-.36643-.3527-.70086-.6249-.9833-.2723-.28243-.5987-.50708-.9598-.66053-.3611-.15344-.7493-.23252-1.1416-.23252-.3924 0-.7806.07908-1.1417.23252-.3611.15345-.6875.3781-.9598.66053-.2722.28244-.4848.61687-.6249.9833-.1401.36644-.205.75736-.1906 1.14936-.0144.3921.0505.783.1906 1.1494.1401.3665.3527.7009.6249.9833.2723.2825.5987.5071.9598.6606.3611.1534.7493.2325 1.1417.2325.3923 0 .7805-.0791 1.1416-.2325.3611-.1535.6875-.3781.9598-.6606.2722-.2824.4848-.6168.6249-.9833.1401-.3664.205-.7573.1906-1.1494z"/><path d="m66.673 15.8193v-8.0915h-1.5651v-2.66849h1.5651v-.81776c0-2.6411 1.4086-4.1748996 4.4097-4.1748996.2817 0 .5595.0234764.8608.0430406v2.691969c-.2583-.02739-.493-.02739-.7082-.02739-1.1426 0-1.7882.39127-1.7882 1.48293v.81776h2.4964v2.66849h-2.4964v8.07585z"/><path d="m88.0364 12.9785v2.8407h-9.3123v-15.064073h9.2106v2.840653h-6.2604v3.20845h5.7009v2.79761h-5.6813v3.37666z"/><path d="m100.048 9.21467v6.60473h-2.7737v-6.26041c0-1.46336-.8843-2.21852-2.1325-2.21852-1.3538 0-2.3476.78254-2.3476 2.66853v5.8104h-2.8015v-10.76006h2.7741v1.20512c.6456-.96644 1.7646-1.5064 3.2084-1.5064 2.289 0 4.0728 1.59248 4.0728 4.45661z"/><path d="m112.898 5.70494v9.89926c0 3.228-2.023 5.0357-5.318 5.0357-2.042 0-3.912-.7826-5.012-2.152l2.258-1.4204c.342.3724.763.664 1.232.8535s.974.2722 1.479.2421c1.636 0 2.649-.7825 2.649-2.5589v-1.2717c-.602.8608-1.592 1.5299-3.251 1.5299-2.497 0-5.087-1.7646-5.087-5.4426 0-3.59582 2.496-5.66174 6.499-5.66174 1.839 0 3.69.45387 4.551.94688zm-2.712 6.34646v-4.47226c-.613-.1529-1.242-.23301-1.874-.23867-2.258 0-3.701 1.09948-3.701 3.07933 0 1.9133 1.424 2.9189 2.989 2.9189.502.0032.997-.1116 1.447-.3352.449-.2237.839-.5498 1.139-.9521z"/><path d="m115.265 12.2039v-11.663879l2.774-.430402v12.094281c0 .9469.54 1.1386 1.565 1.1386.296.0061.591-.0082.885-.043v2.5393c-.479.0587-.962.0874-1.444.0861-2.79 0-3.78-1.1816-3.78-3.721z"/><path d="m132.501 5.70494v10.11446h-2.774v-1.2286c-.603.8608-1.593 1.5299-3.252 1.5299-2.496 0-5.086-1.7647-5.086-5.5718 0-3.68187 2.496-5.79084 6.499-5.79084 1.858 0 3.732.45387 4.613.94688zm-2.774 6.60866v-4.73446c-.613-.1529-1.243-.23301-1.874-.23867-2.258 0-3.702 1.14252-3.702 3.20843 0 2.0659 1.42 3.0324 2.97 3.0324.503.0079 1.001-.1027 1.454-.3229s.847-.5439 1.152-.9448z"/><path d="m145.088 9.21467v6.60473h-2.774v-6.26041c0-1.46336-.881-2.21852-2.129-2.21852-1.357 0-2.347.78254-2.347 2.66853v5.8104h-2.778v-10.76006h2.778v1.20512c.645-.96644 1.764-1.5064 3.204-1.5064 2.262 0 4.046 1.59248 4.046 4.45661z"/><path d="m155.226.540021 2.774-.430402v15.709681h-2.774v-1.2286c-.603.8608-1.593 1.5299-3.248 1.5299-2.496 0-5.086-1.7647-5.086-5.5718 0-3.68188 2.496-5.79084 6.499-5.79084.619-.00066 1.237.04248 1.85.12912zm0 11.773479v-4.73446c-.612-.15313-1.24-.23325-1.871-.23867-2.261 0-3.701 1.14252-3.701 3.20843 0 2.0659 1.42 3.0324 2.97 3.0324.503.0079 1-.1027 1.452-.3229.452-.2203.846-.544 1.15-.9448z"/></g></svg>

<svg xmlns="http://www.w3.org/2000/svg" width="158" height="21" viewBox="0 0 158 21" fill="none">
  <path d="M11.0848 11.4526C11.0848 14.0311 8.99929 15.8192 6.38949 15.8192H0V0.755127H5.94344C8.48281 0.755127 10.5253 2.47673 10.5253 4.99654C10.5385 5.5745 10.4171 6.14762 10.1706 6.67054C9.92408 7.19346 9.55923 7.65182 9.10493 8.00935C9.7193 8.34614 10.2291 8.84561 10.5783 9.45298C10.9275 10.0604 11.1028 10.7522 11.0848 11.4526ZM2.97368 3.53317V6.84727H5.94344C6.15977 6.84955 6.37431 6.80785 6.57402 6.72468C6.77374 6.64151 6.95447 6.51862 7.10523 6.36346C7.256 6.20831 7.37365 6.02413 7.45105 5.8221C7.52845 5.62008 7.56398 5.40444 7.55549 5.18826C7.56809 4.97128 7.53537 4.75404 7.45939 4.5504C7.38341 4.34676 7.26585 4.16117 7.1142 4.00547C6.96254 3.84976 6.78012 3.72736 6.57855 3.64604C6.37698 3.56473 6.16069 3.52629 5.94344 3.53317H2.97368ZM6.39341 13.045C6.62763 13.0501 6.86041 13.007 7.07728 12.9184C7.29415 12.8297 7.49049 12.6975 7.65412 12.5298C7.81776 12.3622 7.94519 12.1626 8.02851 11.9437C8.11183 11.7247 8.14926 11.491 8.13848 11.2569C8.14712 11.0245 8.10803 10.7928 8.02365 10.5761C7.93926 10.3594 7.81135 10.1623 7.64783 9.99695C7.48431 9.83159 7.28863 9.7015 7.07288 9.6147C6.85713 9.5279 6.62588 9.48624 6.39341 9.49228H2.97368V13.045H6.39341Z" fill="white"/>
  <path d="M23.6092 5.70494V15.8194H20.8351V14.5908C20.2325 15.4516 19.2426 16.1207 17.5836 16.1207C15.0873 16.1207 12.4971 14.356 12.4971 10.5489C12.4971 6.86703 14.9934 4.75806 18.9961 4.75806C20.8547 4.75806 22.7289 5.21193 23.6092 5.70494ZM20.8351 12.3136V7.57914C20.2219 7.42624 19.5928 7.34613 18.9609 7.34047C16.7033 7.34047 15.2595 8.48299 15.2595 10.5489C15.2595 12.6148 16.6798 13.5813 18.2292 13.5813C18.7326 13.5892 19.2307 13.4786 19.6834 13.2584C20.1361 13.0382 20.5307 12.7145 20.8351 12.3136Z" fill="white"/>
  <path d="M36.2007 9.21467V15.8194H33.4227V9.55899C33.4227 8.09563 32.5423 7.34047 31.2942 7.34047C29.9364 7.34047 28.9465 8.12301 28.9465 10.009V15.8194H26.1528V5.05934H28.927V6.26446C29.5726 5.29802 30.6916 4.75806 32.1315 4.75806C34.4322 4.75806 36.2007 6.35054 36.2007 9.21467Z" fill="white"/>
  <path d="M38.5679 15.8193V0.540021L41.342 0.109619V9.79366L45.0434 5.05924H48.3575L44.0535 10.3767L48.5062 15.8193H45.2782L41.3655 10.9362V15.8193H38.5679Z" fill="white"/>
  <path d="M52.9432 10.4391C52.9409 9.31217 53.2731 8.20986 53.8977 7.27185C54.5224 6.33384 55.4114 5.60233 56.4522 5.16998C57.4929 4.73763 58.6385 4.6239 59.744 4.8432C60.8494 5.06249 61.8649 5.60494 62.6618 6.40183C63.4587 7.19872 64.0011 8.2142 64.2204 9.31964C64.4397 10.4251 64.326 11.5707 63.8936 12.6115C63.4613 13.6522 62.7298 14.5412 61.7918 15.1659C60.8537 15.7906 59.7514 16.1228 58.6245 16.1204C57.8762 16.1283 57.1339 15.9867 56.4411 15.704C55.7482 15.4212 55.1188 15.0031 54.5897 14.4739C54.0606 13.9448 53.6424 13.3154 53.3596 12.6225C53.0769 11.9297 52.9353 11.1874 52.9432 10.4391ZM61.5512 10.4391C61.5656 10.0471 61.5007 9.65618 61.3606 9.28974C61.2205 8.92331 61.0079 8.58888 60.7357 8.30644C60.4634 8.02401 60.137 7.79936 59.7759 7.64591C59.4148 7.49247 59.0266 7.41339 58.6343 7.41339C58.2419 7.41339 57.8537 7.49247 57.4926 7.64591C57.1315 7.79936 56.8051 8.02401 56.5328 8.30644C56.2606 8.58888 56.048 8.92331 55.9079 9.28974C55.7678 9.65618 55.7029 10.0471 55.7173 10.4391C55.7029 10.8312 55.7678 11.2221 55.9079 11.5885C56.048 11.955 56.2606 12.2894 56.5328 12.5718C56.8051 12.8543 57.1315 13.0789 57.4926 13.2324C57.8537 13.3858 58.2419 13.4649 58.6343 13.4649C59.0266 13.4649 59.4148 13.3858 59.7759 13.2324C60.137 13.0789 60.4634 12.8543 60.7357 12.5718C61.0079 12.2894 61.2205 11.955 61.3606 11.5885C61.5007 11.2221 61.5656 10.8312 61.5512 10.4391Z" fill="white"/>
  <path d="M66.673 15.8193V7.7278H65.1079V5.05931H66.673V4.24155C66.673 1.60045 68.0816 0.0666504 71.0827 0.0666504C71.3644 0.0666504 71.6422 0.0901268 71.9435 0.109691V2.80166C71.6852 2.77427 71.4505 2.77427 71.2353 2.77427C70.0927 2.77427 69.4471 3.16554 69.4471 4.2572V5.07496H71.9435V7.74345H69.4471V15.8193H66.673Z" fill="white"/>
  <path d="M88.0364 12.9785V15.8192H78.7241V0.755127H87.9347V3.59578H81.6743V6.80423H87.3752V9.60184H81.6939V12.9785H88.0364Z" fill="white"/>
  <path d="M100.048 9.21467V15.8194H97.2743V9.55899C97.2743 8.09563 96.39 7.34047 95.1418 7.34047C93.788 7.34047 92.7942 8.12301 92.7942 10.009V15.8194H89.9927V5.05934H92.7668V6.26446C93.4124 5.29802 94.5314 4.75806 95.9752 4.75806C98.2642 4.75806 100.048 6.35054 100.048 9.21467Z" fill="white"/>
  <path d="M112.898 5.70494V15.6042C112.898 18.8322 110.875 20.6399 107.58 20.6399C105.538 20.6399 103.668 19.8573 102.568 18.4879L104.826 17.0675C105.168 17.4399 105.589 17.7315 106.058 17.921C106.527 18.1105 107.032 18.1932 107.537 18.1631C109.173 18.1631 110.186 17.3806 110.186 15.6042V14.3325C109.584 15.1933 108.594 15.8624 106.935 15.8624C104.438 15.8624 101.848 14.0978 101.848 10.4198C101.848 6.82398 104.344 4.75806 108.347 4.75806C110.186 4.75806 112.037 5.21193 112.898 5.70494ZM110.186 12.0514V7.57914C109.573 7.42624 108.944 7.34613 108.312 7.34047C106.054 7.34047 104.611 8.43995 104.611 10.4198C104.611 12.3331 106.035 13.3387 107.6 13.3387C108.102 13.3419 108.597 13.2271 109.047 13.0035C109.496 12.7798 109.886 12.4537 110.186 12.0514Z" fill="white"/>
  <path d="M115.265 12.2039V0.540021L118.039 0.109619V12.2039C118.039 13.1508 118.579 13.3425 119.604 13.3425C119.9 13.3486 120.195 13.3343 120.489 13.2995V15.8388C120.01 15.8975 119.527 15.9262 119.045 15.9249C116.255 15.9249 115.265 14.7433 115.265 12.2039Z" fill="white"/>
  <path d="M132.501 5.70494V15.8194H129.727V14.5908C129.124 15.4516 128.134 16.1207 126.475 16.1207C123.979 16.1207 121.389 14.356 121.389 10.5489C121.389 6.86703 123.885 4.75806 127.888 4.75806C129.746 4.75806 131.62 5.21193 132.501 5.70494ZM129.727 12.3136V7.57914C129.114 7.42624 128.484 7.34613 127.853 7.34047C125.595 7.34047 124.151 8.48299 124.151 10.5489C124.151 12.6148 125.571 13.5813 127.121 13.5813C127.624 13.5892 128.122 13.4786 128.575 13.2584C129.028 13.0382 129.422 12.7145 129.727 12.3136Z" fill="white"/>
  <path d="M145.088 9.21467V15.8194H142.314V9.55899C142.314 8.09563 141.433 7.34047 140.185 7.34047C138.828 7.34047 137.838 8.12301 137.838 10.009V15.8194H135.06V5.05934H137.838V6.26446C138.483 5.29802 139.602 4.75806 141.042 4.75806C143.304 4.75806 145.088 6.35054 145.088 9.21467Z" fill="white"/>
  <path d="M155.226 0.540021L158 0.109619V15.8193H155.226V14.5907C154.623 15.4515 153.633 16.1206 151.978 16.1206C149.482 16.1206 146.892 14.3559 146.892 10.5488C146.892 6.86692 149.388 4.75796 153.391 4.75796C154.01 4.7573 154.628 4.80044 155.241 4.88708L155.226 0.540021ZM155.226 12.3135V7.57904C154.614 7.42591 153.986 7.34579 153.355 7.34037C151.094 7.34037 149.654 8.48289 149.654 10.5488C149.654 12.6147 151.074 13.5812 152.624 13.5812C153.127 13.5891 153.624 13.4785 154.076 13.2583C154.528 13.038 154.922 12.7143 155.226 12.3135Z" fill="white"/>
</svg>
